X:1
T:Title
%%score 1 ( 2 3 )
L:1/8
Q:1/4=95
M:4/4
K:Eb
V:1 treble nm="Grand Piano, Soprano"
V:2 bass nm="Choir Pad, Light Beyond the Shadows"
V:3 bass 
V:1
 [GB][GB][GB][Ac] [GB][EG][EF]E | [Ec]2 [Ec]2 [EB]4 | [GB][GB][GB][Ac] [GB][EG][EF]E | %3
w: By~Joseph~Lincoln~Hall * * * * * * *|||
 [CF]2 [CE]2 [DF]4 | [GB][GB][GB][Ac] [GB][EG][EF]E | [Ec]2 [Ec]2 [Ae]4 | %6
w: |||
 [Ae][Ae][Ad][Ac] [GB][EG]E[EF] | [EG]2 [DF]2 E4 | [GB]3 [GB] [Ac] [GB]3 | [Ge][Ge][Ge][Ge] [Ge]4 | %10
w: ||||
 [GB]3 [GB] [Ac] [GB]3 | [Fd][Fd][Ec][Ec] [DB]4 | [GB]3 [GB] [Ac] [GB]3 | [Ge][Ge][GB][GB] [Ac]4 | %14
w: ||||
 [Ae][Ae][Ad][Ac] [GB][EG]E[EF] | [EG]2 [DF]2 E4- | E4 z4 |] %17
w: |||
V:2
 [E,E][E,E][E,E][E,E] [E,E][E,B,][E,A,][E,G,] | [A,,A,]2 [A,,A,]2 [E,G,]4 | %2
 [E,E][E,E][E,E][E,E] [E,E][E,B,][E,A,][E,G,] | [F,=A,]2 [F,A,]2 [B,,B,]4 | %4
 [E,B,][E,B,][E,E][E,E] [E,E][E,B,][E,A,][E,G,] | [A,,A,]2 [A,,A,]2 [A,C]4 | %6
 [A,C][A,C][A,D][A,E] [E,E][E,B,][C,=A,][C,A,] | [B,,B,]2 [B,,A,]2 [E,G,]4 | %8
 [E,E]3 [E,E] [E,E] [E,E]3 | [E,B,][E,B,][E,C][E,C] [E,B,]4 | [E,E]3 [E,E] [E,E] [E,E]3 | %11
 [F,B,][F,B,][F,=A,][F,A,] B,2 D2 | [E,E]3 [E,E] [E,E] [E,E]3 | [E,B,][E,B,][E,_D][E,D] [A,C]4 | %14
 [A,C][A,C][A,D][A,E] [E,E][E,B,][C,=A,][C,B,] | [B,,B,]2 [B,,B,]2 [E,G,]4- | [E,G,]4 z4 |] %17
V:3
 x8 | x8 | x8 | x8 | x8 | x8 | x8 | x8 | x8 | x8 | x8 | z4 B,,4 | x8 | x8 | x8 | x8 | x8 |] %17

